images/mini-football_theme_dark.svg

<svg width="50" height="50" viewBox="0 0 50 50" fill="none" xmlns="http://www.w3.org/2000/svg">
<path d="M10.7822 4.43843C11.02 4.32663 11.3897 4.18573 11.6038 4.12535C11.9035 4.04074 13.8153 4.01372 19.9273 4.00773L27.8616 4V8.99494C27.8616 13.7243 27.8534 13.9899 27.7079 13.9899C27.6233 13.9899 27.2637 14.1297 26.9088 14.3005C26.554 14.4713 26.0881 14.7503 25.8736 14.9206C25.659 15.0908 25.3373 15.3907 25.1585 15.5872C24.9798 15.7837 24.7004 16.1598 24.5379 16.4231C24.3753 16.6863 24.1356 17.214 24.0051 17.5958C23.8044 18.1832 23.7674 18.4367 23.7641 19.2454C23.7615 19.9274 23.8051 20.3502 23.917 20.7222C24.0032 21.0089 24.1851 21.4693 24.3213 21.7452C24.4576 22.0213 24.7359 22.4625 24.9398 22.7257C25.1437 22.9889 25.5342 23.3812 25.8074 23.5975C26.0807 23.8138 26.5938 24.1251 26.9476 24.2893C27.3014 24.4535 27.6518 24.5878 27.7262 24.5878C27.8475 24.5878 27.8616 25.1078 27.8616 29.5828V34.5777L22.6057 34.577C22.2992 30.4997 20.0495 26.9726 16.7925 24.944V13.5055L16.5979 13.1179C16.4557 12.8347 16.2994 12.6776 16.0174 12.5348C15.6359 12.3415 15.5919 12.3394 12.0611 12.3394H8.49056L8.4916 9.97221C8.49238 8.22468 8.5242 7.48577 8.61336 7.1495C8.67978 6.89898 8.82255 6.50807 8.93074 6.28082C9.03892 6.05357 9.40247 5.59178 9.73861 5.25464C10.087 4.90526 10.5358 4.55431 10.7822 4.43843Z" fill="white"/>
<path d="M13.2696 23.4585H14.0252V15.1192H8.49056V23.2572C9.1056 23.161 9.73571 23.1111 10.3773 23.1111C11.3736 23.1111 12.3422 23.2314 13.2696 23.4585Z" fill="white"/>
<path d="M30.7771 13.9899C30.639 13.9899 30.6289 13.6527 30.6289 8.99494V4L38.52 4.00104C44.9966 4.00191 46.4925 4.0238 46.8647 4.12335C47.1141 4.19007 47.5032 4.33349 47.7294 4.44216C47.9557 4.55083 48.4154 4.91603 48.751 5.25369C49.0999 5.60481 49.4477 6.05366 49.563 6.30202C49.6741 6.5409 49.8174 6.93181 49.8814 7.1707C49.9656 7.48438 49.9983 8.26281 49.999 9.97221L50 12.3394H46.4295C42.8987 12.3394 42.8547 12.3415 42.4731 12.5348C42.1912 12.6776 42.0349 12.8347 41.8927 13.1179L41.6981 13.5055V25.0722L41.8927 25.4598C42.0349 25.743 42.1912 25.9001 42.4731 26.0429C42.8547 26.2362 42.8987 26.2383 46.4295 26.2383H50L49.999 28.6055C49.9983 30.3149 49.9656 31.0933 49.8814 31.407C49.8174 31.6459 49.6741 32.0368 49.563 32.2757C49.4477 32.5241 49.0999 32.9729 48.751 33.324C48.4154 33.6617 47.9557 34.0269 47.7294 34.1356C47.5032 34.2442 47.1141 34.3876 46.8647 34.4544C46.4925 34.5539 44.9966 34.5758 38.52 34.5767L30.6289 34.5777V24.6154L30.9965 24.5071C31.1986 24.4476 31.6169 24.2593 31.9261 24.0887C32.247 23.9116 32.7528 23.5101 33.105 23.1529C33.5599 22.6914 33.8157 22.3359 34.0794 21.7984C34.2761 21.3976 34.4941 20.796 34.5638 20.4616C34.6334 20.1271 34.6904 19.5994 34.6904 19.2889C34.6904 18.9783 34.6334 18.4506 34.5638 18.1161C34.4941 17.7817 34.2747 17.1771 34.0761 16.7726C33.7995 16.2088 33.5619 15.8836 33.0584 15.3796C32.5575 14.8779 32.2267 14.6352 31.6635 14.3559C31.2574 14.1546 30.8585 13.9899 30.7771 13.9899Z" fill="white"/>
<path d="M44.4654 23.4585V15.1192H50V23.4585H44.4654Z" fill="white"/>
<path d="M27.6714 16.9989C27.8639 16.8649 28.1897 16.7002 28.3955 16.6328C28.6206 16.5591 29.0108 16.5217 29.375 16.539C29.7449 16.5566 30.1383 16.6382 30.3864 16.7486C30.6098 16.8481 30.9729 17.1106 31.1933 17.3321C31.4137 17.5534 31.6781 17.9182 31.7808 18.1425C31.9258 18.459 31.9676 18.716 31.9676 19.2889C31.9676 19.8617 31.9258 20.1187 31.7808 20.4352C31.6781 20.6596 31.4137 21.0243 31.1933 21.2457C30.9729 21.4671 30.6098 21.7326 30.3864 21.8358C30.0714 21.9814 29.8155 22.0235 29.2453 22.0235C28.675 22.0235 28.4192 21.9814 28.1041 21.8358C27.8807 21.7326 27.5176 21.4671 27.2973 21.2457C27.0768 21.0243 26.8167 20.662 26.7193 20.4406C26.6217 20.219 26.5228 19.7981 26.4993 19.5051C26.4715 19.1561 26.5045 18.8073 26.5952 18.4941C26.6713 18.2311 26.8658 17.8419 27.0275 17.6292C27.1892 17.4165 27.4789 17.1329 27.6714 16.9989Z" fill="white"/>
<path d="M6.58943 25.9718C6.58943 25.8304 7.21971 25.5671 7.98968 25.3869C8.75966 25.2063 9.83471 25.0433 10.3783 25.024C10.922 25.0047 11.9318 25.1529 12.6224 25.3534C13.6447 25.6505 13.8592 25.8584 13.7755 26.4718C13.6908 27.0939 13.2536 27.3397 11.2699 27.8815L8.86672 28.5373L7.72808 27.3828C7.10175 26.7479 6.58943 26.1127 6.58943 25.9718Z" fill="white"/>
<path d="M1.6892 30.0866C2.25194 29.1694 3.17676 28.0359 3.74477 27.5675C4.31278 27.0991 4.85838 26.7141 4.95755 26.7121C5.05673 26.71 5.71567 27.3273 6.42206 28.0841L7.70634 29.46L7.10175 31.9615C6.76932 33.3373 6.4069 34.5674 6.29619 34.6949C6.18582 34.8224 5.18424 35.1216 4.07062 35.3594L2.04635 35.7923L1.18313 34.7828C0.528803 34.018 0.36176 33.5293 0.49289 32.7642C0.588107 32.2086 1.12647 31.004 1.6892 30.0866Z" fill="white"/>
<path d="M16.9085 29.7488C15.9444 28.7528 15.1557 27.6612 15.1557 27.3231C15.1557 26.985 15.3777 26.7083 15.6489 26.7083C15.9204 26.7083 16.6986 27.2366 17.3786 27.8825C18.0587 28.5284 18.8738 29.5199 19.1901 30.0866C19.7248 31.045 19.7264 31.1319 19.2128 31.338C18.8266 31.4931 18.1354 31.0164 16.9085 29.7488Z" fill="white"/>
<path d="M9.06046 30.0104L11.202 29.4265C12.3799 29.1057 13.4968 28.8279 13.6843 28.8096C13.8717 28.7913 14.8226 29.6213 15.7978 30.6539L17.5704 32.5315L16.2723 37.5648L11.1915 38.9245L7.7607 35.3356L9.06046 30.0104Z" fill="white"/>
<path d="M18.231 35.5586C18.6049 34.1979 19.0668 32.9703 19.2573 32.831C19.4477 32.6918 19.7729 32.5756 19.9801 32.5725C20.1874 32.5698 20.4467 32.8128 20.5567 33.1126C20.6667 33.4125 20.7557 34.6143 20.7547 35.7837C20.7537 36.9527 20.5936 38.5102 20.3986 39.2447L20.0444 40.5795L17.5513 38.0332L18.231 35.5586Z" fill="white"/>
<path d="M0.219423 38.4534C0.0988365 37.8226 0 36.919 0 36.4457C0 35.7196 0.0774258 35.652 0.494207 36.0139C0.766021 36.25 0.977869 36.8504 0.965349 37.3484C0.952499 37.8468 0.82895 38.5571 0.690243 38.9273C0.477075 39.4973 0.404915 39.4246 0.219423 38.4534Z" fill="white"/>
<path d="M2.47104 37.2529L3.95366 36.8397C4.7691 36.6122 5.73774 36.4109 6.10642 36.3923C6.50772 36.372 7.47768 37.1013 8.52408 38.2097L10.2716 40.0605L9.71083 42.1511C9.40245 43.3012 8.93196 44.3297 8.66542 44.4365C8.39888 44.5437 7.41509 44.7216 6.47906 44.8322C4.78722 45.0321 4.76844 45.0238 3.23673 43.3671L1.69612 41.7007L2.47104 37.2529Z" fill="white"/>
<path d="M11.3243 41.5445C11.6659 40.452 11.8715 40.3066 13.8378 39.7686C15.0157 39.4463 16.1345 39.1675 16.3243 39.1492C16.5141 39.1309 17.2323 39.7189 17.9206 40.4561C18.9406 41.549 19.1103 41.9151 18.8395 42.4379C18.6566 42.7908 18.0867 43.4777 17.5727 43.9643C17.0587 44.451 16.2676 45.0845 15.8146 45.3719C15.3616 45.6594 14.5254 46.0616 13.9567 46.2653C13.0523 46.5892 12.7713 46.5234 11.7199 45.7407C10.6548 44.948 10.5424 44.7257 10.7352 43.7903C10.8548 43.2096 11.12 42.199 11.3243 41.5445Z" fill="white"/>
<path d="M7.90731 46.3473C7.90731 46.1874 8.24073 46.0023 8.64862 45.9361C9.0565 45.8696 9.7283 46.0347 10.1415 46.3032C10.5549 46.572 10.8244 46.8636 10.7404 46.9515C10.6561 47.0393 9.98429 47.0045 9.24726 46.8743C8.51024 46.744 7.90731 46.5069 7.90731 46.3473Z" fill="white"/>
</svg>

<svg width="50" height="50" fill="none" xmlns="http://www.w3.org/2000/svg"><path d="M10.782 4.438c.238-.111.608-.252.822-.313.3-.084 2.211-.111 8.323-.117L27.862 4v4.995c0 4.73-.009 4.995-.154 4.995-.085 0-.444.14-.8.31-.354.171-.82.45-1.034.62-.215.17-.537.47-.715.667a6.842 6.842 0 0 0-.621.836 7.054 7.054 0 0 0-.533 1.173c-.2.587-.238.84-.24 1.65-.003.681.04 1.104.152 1.476a8 8 0 0 0 .404 1.023c.137.276.415.717.619.98.204.264.594.656.867.872.274.217.787.528 1.14.692.354.164.705.299.78.299.12 0 .135.52.135 4.995v4.995l-5.256-.001a12.44 12.44 0 0 0-5.814-9.633V13.506l-.194-.388a1.176 1.176 0 0 0-.58-.583c-.382-.194-.426-.196-3.957-.196h-3.57V9.972c.001-1.747.033-2.486.122-2.822.067-.251.21-.642.318-.87.108-.226.471-.688.808-1.025.348-.35.797-.7 1.043-.817Z" fill="#fff"/><path d="M13.27 23.459h.755v-8.34H8.491v8.138a12.203 12.203 0 0 1 4.779.201Zm17.507-9.469c-.138 0-.148-.337-.148-4.995V4l7.891.001c6.477 0 7.972.023 8.345.122.25.067.638.21.864.32.227.108.686.473 1.022.81.349.352.697.8.812 1.049.111.239.254.63.318.869.085.313.117 1.092.118 2.801L50 12.34h-3.57c-3.531 0-3.575.002-3.957.196-.282.143-.438.3-.58.583l-.195.387v11.567l.195.388c.142.283.298.44.58.583.382.193.426.195 3.956.195H50l-.001 2.367c0 1.71-.033 2.488-.118 2.802a6.46 6.46 0 0 1-.318.869c-.115.248-.463.697-.812 1.048-.336.338-.795.703-1.022.812a6.001 6.001 0 0 1-.864.318c-.373.1-1.868.122-8.345.123h-7.891v-9.962l.367-.108c.203-.06.62-.248.93-.418.321-.177.827-.579 1.179-.936.455-.462.71-.817.974-1.355.197-.4.415-1.002.485-1.336a6.97 6.97 0 0 0 .126-1.173c0-.31-.057-.838-.126-1.173-.07-.334-.29-.939-.488-1.343-.276-.564-.514-.89-1.018-1.393-.5-.502-.831-.745-1.395-1.024-.406-.201-.805-.366-.886-.366Z" fill="#fff"/><path d="M44.465 23.459v-8.34H50v8.34h-5.535Zm-16.794-6.46c.193-.134.519-.299.724-.366.226-.074.616-.111.98-.094.37.018.763.1 1.011.21.224.1.587.362.807.583.22.221.485.586.588.81.145.317.187.574.187 1.147 0 .573-.042.83-.187 1.146-.103.225-.367.59-.588.81-.22.222-.583.488-.807.59-.315.146-.57.188-1.14.188-.571 0-.827-.042-1.142-.187-.223-.103-.586-.369-.807-.59-.22-.222-.48-.584-.578-.805a3.49 3.49 0 0 1-.22-.936 2.855 2.855 0 0 1 .096-1.01c.076-.264.27-.653.433-.866a3.44 3.44 0 0 1 .643-.63ZM6.59 25.972c0-.142.63-.405 1.4-.585.77-.18 1.845-.344 2.388-.363.544-.02 1.554.129 2.244.33 1.023.297 1.237.504 1.153 1.118-.084.622-.521.868-2.505 1.41l-2.403.655-1.139-1.154c-.626-.635-1.139-1.27-1.139-1.411Zm-4.9 4.115c.562-.918 1.487-2.051 2.055-2.52.568-.468 1.113-.853 1.213-.855.099-.002.758.615 1.464 1.372l1.284 1.376-.604 2.502c-.333 1.375-.695 2.605-.806 2.733-.11.127-1.112.427-2.225.664l-2.025.433-.863-1.01c-.654-.764-.821-1.253-.69-2.018.095-.555.633-1.76 1.196-2.677Zm15.219-.338c-.965-.996-1.753-2.088-1.753-2.426 0-.338.222-.615.493-.615s1.05.529 1.73 1.175c.68.645 1.495 1.637 1.811 2.204.535.958.536 1.045.023 1.251-.386.155-1.078-.322-2.305-1.59Zm-7.849.261 2.142-.584c1.178-.32 2.295-.598 2.482-.616.188-.019 1.139.811 2.114 1.844l1.772 1.878-1.298 5.033-5.08 1.36-3.431-3.59 1.3-5.325Zm9.171 5.549c.374-1.361.836-2.589 1.026-2.728.19-.14.516-.255.723-.259.207-.002.467.24.577.54.11.3.199 1.502.198 2.672-.001 1.169-.161 2.726-.356 3.46l-.355 1.336-2.493-2.547.68-2.474ZM.22 38.453C.098 37.823 0 36.92 0 36.446c0-.726.077-.794.494-.432.272.236.484.836.471 1.334-.013.499-.136 1.21-.275 1.58-.213.57-.285.497-.47-.475Zm2.251-1.2 1.483-.413c.815-.228 1.784-.43 2.152-.448.402-.02 1.372.71 2.418 1.818l1.748 1.85-.561 2.091c-.309 1.15-.779 2.179-1.046 2.285-.266.108-1.25.286-2.186.396-1.692.2-1.71.192-3.242-1.465l-1.54-1.666.774-4.448Zm8.853 4.291c.342-1.092.547-1.237 2.514-1.775 1.178-.323 2.296-.602 2.486-.62.19-.018.908.57 1.597 1.307 1.02 1.093 1.19 1.46.919 1.982-.183.353-.753 1.04-1.267 1.526-.514.487-1.305 1.12-1.758 1.408-.453.287-1.29.69-1.858.893-.905.324-1.186.258-2.237-.524-1.065-.793-1.178-1.015-.985-1.95.12-.581.385-1.592.59-2.246Zm-3.417 4.803c0-.16.334-.345.742-.41.408-.067 1.08.098 1.493.366.413.269.682.56.598.649-.084.087-.756.053-1.493-.078-.737-.13-1.34-.367-1.34-.527Z" fill="#fff"/></svg>
